<?xml version="1.0" encoding="UTF-8"?>
<map version="1.10" tiledversion="1.12.2" orientation="orthogonal" renderorder="right-down" width="30" height="20" tilewidth="16" tileheight="16" infinite="0" nextlayerid="11" nextobjectid="7">
 <tileset firstgid="1" source="NES - Battle City (JPN) - Miscellaneous - General Sprites.tsx"/>
 <group id="10" name="Group 2">
  <layer id="1" name="Tile Layer 1" width="30" height="20">
   <data encoding="csv">
94,94,94,94,94,94,94,94,94,94,94,94,94,94,94,94,94,94,94,94,94,94,94,94,94,94,94,94,94,94,
94,94,94,94,94,94,94,68,68,68,68,94,94,94,94,94,94,94,94,94,94,92,92,92,92,92,94,94,94,94,
94,94,94,94,94,94,94,68,68,68,68,68,68,68,68,68,94,94,94,94,94,92,92,92,92,92,92,68,68,94,
94,94,94,94,94,94,94,94,68,68,68,68,68,68,68,68,68,68,94,17,17,92,92,92,92,92,92,68,68,94,
94,94,94,94,94,94,68,68,68,68,68,68,68,68,68,68,68,68,68,17,17,67,67,67,67,67,67,94,94,94,
94,94,94,94,94,68,68,68,68,68,68,68,68,68,68,68,68,68,68,17,17,17,67,67,67,67,67,67,92,94,
94,94,94,94,94,68,68,68,68,68,68,68,68,68,68,68,68,68,68,68,17,17,92,92,92,92,92,92,92,94,
94,94,94,94,94,94,94,94,68,68,68,68,68,68,68,68,68,68,68,68,68,17,92,92,92,92,92,92,92,92,
94,94,94,94,94,94,94,94,68,68,68,68,68,68,68,68,68,68,68,68,68,17,92,92,92,92,92,92,92,94,
94,94,94,94,94,94,94,94,68,68,68,68,68,68,68,68,68,68,68,68,68,17,17,17,92,92,92,92,92,94,
94,94,94,94,94,94,94,94,68,68,68,68,68,68,68,68,68,68,68,68,68,68,17,17,92,92,92,92,92,94,
94,94,94,94,94,94,94,68,68,68,68,68,68,68,68,68,68,68,68,68,68,68,17,17,92,92,92,92,92,94,
94,94,94,94,94,94,94,68,68,68,68,68,68,68,68,68,68,68,68,68,68,68,17,17,92,92,92,92,92,94,
94,94,94,94,94,94,94,94,68,68,68,68,68,68,68,68,68,68,68,68,17,17,17,92,92,92,92,92,94,94,
94,94,94,94,94,94,94,94,68,68,68,68,68,68,68,68,68,68,68,68,17,17,17,92,92,92,92,92,94,94,
94,94,94,94,94,94,94,94,94,94,68,68,68,68,68,68,68,68,68,17,17,17,92,92,92,92,92,92,94,94,
94,94,94,94,94,94,94,94,94,68,68,68,68,68,68,68,68,94,94,17,17,17,92,92,92,92,92,94,94,94,
94,94,94,94,94,94,94,94,94,94,94,94,94,94,94,94,94,94,94,17,17,17,68,68,92,92,92,94,94,94,
94,94,94,94,94,94,94,94,94,94,94,94,94,94,94,94,94,94,94,17,17,17,68,68,92,92,92,94,94,94,
94,94,94,94,94,94,94,94,94,94,94,94,94,94,94,94,94,94,94,94,94,94,94,94,94,94,94,94,94,94
</data>
  </layer>
  <objectgroup id="9" name="Object Layer 2"/>
 </group>
 <group id="8" name="Group 1">
  <layer id="7" name="Tile Layer 2" width="30" height="20">
   <data encoding="csv">
0,0,0,0,0,0,0,0,0,0,0,0,0,0,0,0,0,0,0,0,0,0,0,0,0,0,0,0,0,0,
0,0,0,0,0,0,0,0,0,0,0,0,0,0,0,0,0,0,0,0,0,0,0,0,0,0,0,0,0,0,
0,0,0,0,0,0,0,0,0,0,0,0,0,0,0,0,0,0,0,0,0,0,0,0,0,0,0,0,0,0,
0,0,0,0,0,0,0,0,0,0,0,0,0,0,0,0,0,0,0,0,0,0,0,0,0,0,0,0,0,0,
0,0,0,0,0,0,0,0,0,0,0,0,0,0,0,0,0,0,17,17,17,17,17,17,17,17,17,17,0,0,
0,0,0,0,0,0,0,0,0,0,0,0,0,0,0,0,0,0,17,17,17,17,17,17,17,17,17,17,0,0,
0,0,0,0,0,0,0,0,0,0,0,0,0,0,0,0,0,0,0,0,0,0,0,0,0,0,0,0,0,0,
0,0,0,0,0,0,0,0,0,0,0,0,0,0,0,0,0,0,0,0,0,0,0,0,0,0,0,0,0,0,
0,0,0,0,0,0,0,0,0,0,0,0,0,0,0,0,0,0,0,0,0,0,0,0,0,0,0,0,0,0,
0,0,0,0,0,0,0,0,0,0,0,0,0,0,0,0,0,0,0,0,0,0,0,0,0,0,0,0,0,0,
0,0,0,0,0,0,0,0,0,0,0,0,0,0,0,0,0,0,0,0,0,0,0,0,0,0,0,0,0,0,
0,0,0,0,0,0,0,0,0,0,0,0,0,0,0,0,0,0,0,0,0,0,0,0,0,0,0,0,0,0,
0,0,0,0,0,0,0,0,0,0,0,0,0,0,0,0,0,0,0,0,0,0,0,0,0,0,0,0,0,0,
0,0,0,0,0,0,0,0,0,0,0,0,0,0,0,0,0,0,0,0,0,0,0,0,0,0,0,0,0,0,
0,0,0,0,0,0,0,0,0,0,0,0,0,0,0,0,0,0,0,0,0,0,0,0,0,0,0,0,0,0,
0,0,0,0,0,0,0,0,0,0,0,0,0,0,0,0,0,0,0,0,0,0,0,0,0,0,0,0,0,0,
0,0,0,0,0,0,0,0,0,0,0,0,0,0,0,0,0,0,0,0,0,0,0,0,0,0,0,0,0,0,
0,0,0,0,0,0,0,0,0,0,0,0,0,0,0,0,0,0,0,0,0,0,0,0,0,0,0,0,0,0,
0,0,0,0,0,0,0,0,0,0,0,0,0,0,0,0,0,0,0,0,0,0,0,0,0,0,0,0,0,0,
0,0,0,0,0,0,0,0,0,0,0,0,0,0,0,0,0,0,0,0,0,0,0,0,0,0,0,0,0,0
</data>
  </layer>
  <objectgroup color="#eb4941" id="2" name="Entities">
   <object id="4" name="Enemy" x="262.254" y="13.9777" width="15.2818" height="14.645"/>
   <object id="5" name="PlayerObject" x="97.3356" y="33.1146" width="16" height="16"/>
   <object id="6" name="Enemy" x="287.17" y="16.2369" width="15.2818" height="14.645"/>
  </objectgroup>
 </group>
</map>
